X:028
T:Largetto TS.028
M:3/4
L:1/8
Q:3/4=30
S:Thomas Sands’ MS,1810,Lincolnshire
R:air
C:Prefixed as ‘No.16′ in MS
O:England;Lincolnshire
Z:vmp.Ruairidh Greig, 2011
K:C
“_p”G>F|[E4G,4](F>E)|[D4G,4]E>D|C2{B,}A,2D>C|
“_crots in MS”B,A,G,2G>F|[E4 G,4]F>E|[D4G,4]”_F”G>c|A>d [c2E2][B2D2]|[B2D2][c2E2]:|
|:”_p”(e>f)|g4(c’>g)|e2c2e2|f2d2(A>d)|{c}B2{A}G2(e>f)|
“_f”g2e2c’2″bar line added”|{b}g2 fedc|(3def A2B2|[1[B2D2][c2E2]:|
[2[B2D2][c2E2]G2||[F6G,6]|[E6G,6]|[d2F2][c2E2][B2D2]|[B2D2][c2E2]|]

